teams/dark/114.svg

<svg xmlns="http://www.w3.org/2000/svg" viewBox="0 0 300 300"><title>Cleveland Guardians cap on dark logo</title><path fill="#fff" d="M206.31 256.47v8.28h-2.06v-8.28h-3.04v-1.8h8.14v1.8Zm14.77 8.28v-8.02h-.05l-2.91 8.02h-1.99l-2.83-8.02h-.04v8.02h-2.06v-10.08h3.57l2.34 6.58h.05l2.44-6.58h3.54v10.08Zm-48.14-84.41c13.44-1.78 26.49-2.96 39.14-3.36 3.76 16.21 8.7 42.11 11.07 57.33-27.28 13.04-51.2 22.14-75.12 30.44-25.31-8.7-48.63-18.58-72.75-30.05 5.14-21.55 8.11-54.36 8.11-97.26 0-29.45-1.78-47.04-6.33-69.38 23.72-12.25 47.05-22.93 72.55-32.81 11.06 4.47 21.35 9.23 31.42 14.26l3.17-8.53c8.3-1.19 25.1.2 40.52 2.57-2.96 19.57-6.32 40.52-9.88 61.87-.99 5.93-1.98 11.86-2.77 17.79-17.4 2.37-33.02 3.55-40.33 2.17.2-18.12.35-28.89.04-36.13-7.34-2.8-14.49-5.36-22.18-7.75-7.12 2.38-15.43 5.54-22.98 8.7-.75 39.99-1.21 79.99-1.16 119.98 7.4 2.88 15.03 5.5 22.96 7.91 8.52-1.95 16.55-4.31 24.51-7.06v-30.69Z"/><path fill="#e31937" d="M179.65 186.27v29.54c-10.09 3.67-20.44 6.87-31.63 9.2-9.99-3.05-19.83-6.39-29.27-10.26-.09-42.96.41-86.06 1.23-129.02 9.39-4.11 20.59-8.35 29.42-11.35 10.16 3.02 19.29 6.41 28.74 10.09.64 7.1.55 17.22.32 34.78 6.92.2 16.61-.59 27.67-1.98 3.76-23.33 7.51-46.45 10.87-68-10.67-1.38-20.95-2.17-28.07-1.98l-4.28 11.59c-11.35-5.84-22.75-11.24-35.05-16.33-22.73 8.9-43.69 18.38-65.04 29.26 3.95 20.36 5.53 38.15 5.53 65.63 0 39.93-2.57 71.56-7.12 93.5 21.55 10.08 42.5 18.78 65.04 26.69 23.13-8.11 45.86-16.8 67.41-27.08-1.19-9.09-5.14-30.64-8.7-46.65-8.9.4-17.79 1.19-27.08 2.37Z"/></svg>

<svg width="300" height="300" viewBox="0 0 300 300" fill="none" xmlns="http://www.w3.org/2000/svg">
<path d="M172.94 180.34C186.38 178.56 199.43 177.38 212.08 176.98C215.84 193.19 220.78 219.09 223.15 234.31C195.87 247.35 171.95 256.45 148.03 264.75C122.72 256.05 99.4 246.17 75.28 234.7C80.42 213.15 83.39 180.34 83.39 137.44C83.39 107.99 81.61 90.4 77.06 68.06C100.78 55.81 124.11 45.13 149.61 35.25C160.67 39.72 170.96 44.48 181.03 49.51L184.2 40.98C192.5 39.79 209.3 41.18 224.72 43.55C221.76 63.12 218.4 84.07 214.84 105.42C213.85 111.35 212.86 117.28 212.07 123.21C194.67 125.58 179.05 126.76 171.74 125.38C171.94 107.26 172.09 96.49 171.78 89.25C164.44 86.45 157.29 83.89 149.6 81.5C142.48 83.88 134.17 87.04 126.62 90.2C125.87 130.19 125.41 170.19 125.46 210.18C132.86 213.06 140.49 215.68 148.42 218.09C156.94 216.14 164.97 213.78 172.93 211.03V180.34H172.94Z" fill="white"/>
<path d="M179.65 186.27V215.81C169.56 219.48 159.21 222.68 148.02 225.01C138.03 221.96 128.19 218.62 118.75 214.75C118.66 171.79 119.16 128.69 119.98 85.73C129.37 81.62 140.57 77.38 149.4 74.38C159.56 77.4 168.69 80.79 178.14 84.47C178.78 91.57 178.69 101.69 178.46 119.25C185.38 119.45 195.07 118.66 206.13 117.27C209.89 93.94 213.64 70.82 217 49.27C206.33 47.89 196.05 47.1 188.93 47.29L184.65 58.88C173.3 53.04 161.9 47.64 149.6 42.55C126.87 51.45 105.91 60.93 84.56 71.81C88.51 92.17 90.09 109.96 90.09 137.44C90.09 177.37 87.52 209 82.97 230.94C104.52 241.02 125.47 249.72 148.01 257.63C171.14 249.52 193.87 240.83 215.42 230.55C214.23 221.46 210.28 199.91 206.72 183.9C197.82 184.3 188.93 185.09 179.64 186.27H179.65Z" fill="#E31937"/>
</svg>
